16x16/apps/keepassx.svg

<svg height="16" width="16" xmlns="http://www.w3.org/2000/svg"><rect fill="#38a334" height="16" rx=".8" width="16"/><path d="m11 3a3 3 0 0 0 -3 3 3 3 0 0 0 .291 1.281l-5.291 5.291v1.428h1.428l1-1h1.572v-1.572l.428-.428h1.572v-1.572l.719-.719a3 3 0 0 0 1.281.291 3 3 0 0 0 3-3 3 3 0 0 0 -3-3zm1 1a1 1 0 0 1 1 1 1 1 0 0 1 -1 1 1 1 0 0 1 -1-1 1 1 0 0 1 1-1z" fill="#f4f4f7"/><path d="m3 5.429v-1.429h1.429l8.571 8.571v1.429h-1.429z" fill="#454545"/></svg>

<svg xmlns="http://www.w3.org/2000/svg" width="16" height="16" version="1"><rect style="fill:#38a334" width="16" height="16" rx=".8" ry=".8"/><path style="fill:#f4f4f7" d="M11 3a3 3 0 0 0-3 3 3 3 0 0 0 .291 1.281L3 12.572V14h1.428l1-1H7v-1.572L7.428 11H9V9.428l.719-.719A3 3 0 0 0 11 9a3 3 0 0 0 3-3 3 3 0 0 0-3-3zm1 1a1 1 0 0 1 1 1 1 1 0 0 1-1 1 1 1 0 0 1-1-1 1 1 0 0 1 1-1z"/><path style="fill:#454545" d="M3 5.429V4h1.429L13 12.571V14h-1.429z"/></svg>
